X: 1222
M: 3/8
L: 1/16
K: G
(Bc) |\
.d2(ded^c) | d2"_>"g4 | .B2(BcB^A) | B2"^>"d4 |\
(GABc).d.e | e4d2 | (fedc).B.A | G4 H:|
|: dd |\
(^cd).d.d.d.d | (^cd).d.d.d.d | gfedcB | dccccc |\
(Bc).c.c.c.c | (Bc).c.c.c.c | (fedc).B.A | G4 :|
|: Gc |\
.e2e(=fe^d) | "^>"e4d2 | .c2(cdcB) | "^>"c4B2 |\
|: d>d |\
f3ecA | e3dBG | d3cAF | (GABc).d.e |\
f3ecA | e3dBG | d3cAF | G4 "^D.C.":|

